X:1
T:Que l'entreprise est belle
T:Que l'entreprise est belle
T:André Vierendeels (30/11/10)
C:André Vierendeels
C:(30/11/10)
%%score [ 1 2 3 4 ]
L:1/8
Q:1/4=120
M:2/2
K:C
V:1 treble nm="Soprano" snm="S"
V:2 treble nm="Alto" snm="A"
V:3 treble-8 nm="Tenor" snm="T"
V:4 bass nm="Bass" snm="B"
V:1
 z4 A4 | A4 A4 | d4 c4 | B8 | !fermata!A4 c4 | B4 A4 | A4 ^G4 | !fermata!A4 A4 | A4 A4 | _B4 G4 | %10
w: Que|l'en- tre-|pri- s'est|bel-|le de|te lou-|er, Sei-|gneur, de|chan- ter|ton hon-|
 !fermata!F4 F4 | G4 A4 | D4 F4 | E8 | !fermata!D4 F4 | E4 D4 | F4 G4 | A8 | !fermata!A4 c4 | %19
w: neur, d'un|cueur hum-|bl'et fi-|dè-|le, quand|le so-|leil se|lè-|ve, d'an-|
 B4 c4 | d4 B4 | !fermata!A4 D4 | A4 A4 | G4 F4 | !fermata!E4 A4 | A4 G4 | F4 D4 | E8 | %28
w: non- cer|ta bon-|té, et|ta fi-|dé- li-|té quand|sa cour-|se s'a-|chè-|
 !fermata!D8 |] %29
w: ve!|
V:2
 z4 E4 | F4 E4 | G4 E4 | E8 | !fermata!E4 E4 | ^D4 ^F4 | E4 E2 D2 | !fermata!^C4 E4 | F4 E4 | %9
w: Que|l'en- tre-|pri- s'est|bel-|le de|te lou-|er, Sei- *|gneur, de|chan- ter|
 G4 E4 | !fermata!C4 D2 C2 | D4 E4 | A,3 B, C4 | C8 | !fermata!A,4 C4 | C4 A,4 | D4 D4 | E4 F2 G2 | %18
w: ton hon-|neur, _ _|cueur hum-|bl'et _ fi-|dè-|le, quand|le so-|leil se|lè- * *|
 !fermata!^F4 A2 =F2 | G2 FD E4 | G4 D3 C | !fermata!D4 B,4 | A,3 B, C4 | D4 C4 | !fermata!B,4 E4 | %25
w: ve, d'an- *|non- * * *|ta bon- *|té, et|ta _ fi-|dé- li-|té quand|
 D4 D2 E2 | D6 B,2 | ^C2 D4 C2 | !fermata!A,8 |] %29
w: sa cour- *|se s'a-|chè- * *|ve!|
V:3
 z4 A4 | d4 c4 | G4 G4 | B2 A4 ^G2 | !fermata!A4 A3 G | ^F4 A3 G | A4 B4 | !fermata!E4 A3 G | %8
w: Que|l'en- tre-|pri- s'est|bel- * *|le de _|te lou- *|er, Sei-|gneur, de _|
 d4 c4 | G3 G G2 _B2 | !fermata!A4 A4 | _B4 cBAG | F4 A4 | G4 A2 _B2 | !fermata!A4 c4 | cBAG F4 | %16
w: chan- ter|ton _ hon- *|neur, d'un|cueur hum- * * *|bl'et fi-|dè- * *|le, quand|le _ _ _ so-|
 A4 G2 B2 | ^c2 d4 c2 | !fermata!d4 e4 | B4 G4 | B4 G4 | !fermata!^F4 G4 | F4 E2 ^F2 | B4 A4 | %24
w: leil se- *|lè- * *|ve, d'an-|non- cer|ta bon-|té, et|ta fi- *|dé- li-|
 !fermata!^G4 A2 =G2 | F4 G4 | A4 F2 G2 | A2 G2 F2 G2 | !fermata!^F8 |] %29
w: té quand _|sa cour-|se s'a- *|chè- * * *|ve!|
V:4
 z4 A,,4 | D,4 A,,4 | B,,4 C,4 | E,8 | !fermata!A,4 A,,4 | B,,4 D,4 | A,,B,,C,D, E,4 | %7
w: Que|l'en- tre-|pri- s'est|bel-|le de|te lou-|er, _ _ _ Sei-|
 !fermata!A,,4 A,,4 | D,3 B,, A,,4 | G,,4 C,4 | !fermata!F,4 D,4 | G,,4 A,,4 | D,4 F,4 | C,8 | %14
w: gneur, de|chan- * ter|ton hon-|heur, d'un|cueur hum-|bl'et fi-|dè-|
 !fermata!D,4 F,4 | C,4 D,4 | D,4 G,,4 | A,,8 | !fermata!D,4 A,4 | E,4 C,4 | G,4 G,,4 | %21
w: le, quand|le so-|leil se|lè-|ve, d'an-|non- cer|ta bon-|
 !fermata!D,4 G,,4 | D,4 A,,4 | G,,4 A,,B,,C,D, | !fermata!E,4 ^C,4 | D,2 C,2 B,,4 | D,2 F,2 D,4 | %27
w: té, et|ta fi-|dé- li- * * *|té quand|sa _ cour-|se _ s'a-|
 A,,8 | !fermata!D,8 |] %29
w: chè-|ve!|

